packages/paste-icons/svg/OrderedList.svg

<svg width="20" height="20" viewBox="0 0 20 20" fill="none" xmlns="http://www.w3.org/2000/svg">
<path d="M5.625 4.63001C5.625 4.39473 5.49287 4.17939 5.28313 4.07281C5.07338 3.96624 4.82155 3.98648 4.63151 4.12519L3.26152 5.12519C2.98271 5.32869 2.92167 5.71969 3.12518 5.99849C3.32869 6.2773 3.71968 6.33834 3.99849 6.13483L4.375 5.86V8.38C4.375 8.72518 4.65482 9.005 5 9.005C5.34518 9.005 5.625 8.72518 5.625 8.38V4.63001Z" fill="#606B85"/>
<path d="M7.3739 5.25C7.3739 4.90482 7.65372 4.625 7.9989 4.625H16.375C16.7202 4.625 17 4.90482 17 5.25C17 5.59518 16.7202 5.875 16.375 5.875H7.9989C7.65372 5.875 7.3739 5.59518 7.3739 5.25Z" fill="#606B85"/>
<path d="M7.3739 10C7.3739 9.65482 7.65372 9.375 7.9989 9.375H16.375C16.7202 9.375 17 9.65482 17 10C17 10.3452 16.7202 10.625 16.375 10.625H7.9989C7.65372 10.625 7.3739 10.3452 7.3739 10Z" fill="#606B85"/>
<path d="M7.9989 14.125C7.65372 14.125 7.3739 14.4048 7.3739 14.75C7.3739 15.0952 7.65372 15.375 7.9989 15.375H16.375C16.7202 15.375 17 15.0952 17 14.75C17 14.4048 16.7202 14.125 16.375 14.125H7.9989Z" fill="#606B85"/>
<path d="M4.66847 12.255C4.56515 12.255 4.46201 12.2972 4.38288 12.3788C4.30311 12.461 4.25501 12.5766 4.25501 12.701C4.25501 13.0462 3.97519 13.326 3.63001 13.326C3.28483 13.326 3.00501 13.0462 3.00501 12.701C3.00501 12.2573 3.17573 11.8281 3.48546 11.5086C3.79583 11.1885 4.22096 11.005 4.66847 11.005C5.11598 11.005 5.54112 11.1885 5.85148 11.5086C6.16121 11.8281 6.33193 12.2573 6.33193 12.701C6.33193 12.9322 6.30497 13.1534 6.21447 13.3834C6.12833 13.6024 5.99885 13.7919 5.85483 13.9778C5.73337 14.1345 5.43836 14.4452 5.13574 14.755H5.88001C6.22519 14.755 6.50501 15.0348 6.50501 15.38C6.50501 15.7252 6.22519 16.005 5.88001 16.005H3.63001C3.37634 16.005 3.14784 15.8517 3.05167 15.617C2.9555 15.3822 3.01074 15.1126 3.19149 14.9347L3.25416 14.8728C3.29445 14.833 3.3524 14.7756 3.42279 14.7057C3.56366 14.5657 3.75399 14.3758 3.95227 14.1755C4.3667 13.757 4.76413 13.3446 4.86673 13.2122C4.98672 13.0573 5.03032 12.979 5.05125 12.9258C5.06782 12.8837 5.08193 12.8283 5.08193 12.701C5.08193 12.5766 5.03383 12.461 4.95406 12.3788C4.87493 12.2972 4.77179 12.255 4.66847 12.255Z" fill="#606B85"/>
</svg>

<svg xmlns="http://www.w3.org/2000/svg" width="20" height="20" fill="none" viewBox="0 0 20 20">
  <path fill="#606B85" d="M5.625 4.63a.625.625 0 0 0-.994-.505l-1.37 1a.625.625 0 0 0 .737 1.01l.377-.275v2.52a.625.625 0 1 0 1.25 0V4.63Zm1.749.62c0-.345.28-.625.625-.625h8.376a.625.625 0 1 1 0 1.25H7.999a.625.625 0 0 1-.625-.625Zm0 4.75c0-.345.28-.625.625-.625h8.376a.625.625 0 1 1 0 1.25H7.999A.625.625 0 0 1 7.374 10Zm.625 4.125a.625.625 0 1 0 0 1.25h8.376a.625.625 0 1 0 0-1.25H7.999Zm-3.331-1.87a.398.398 0 0 0-.285.124.463.463 0 0 0-.128.322.625.625 0 1 1-1.25 0c0-.444.17-.873.48-1.192a1.643 1.643 0 0 1 2.366 0c.31.32.48.748.48 1.192 0 .231-.026.452-.117.682a2.427 2.427 0 0 1-.36.595c-.12.156-.416.467-.718.777h.744a.625.625 0 1 1 0 1.25H3.63a.625.625 0 0 1-.439-1.07l.063-.062a91.194 91.194 0 0 0 .698-.697c.415-.419.812-.831.915-.964a1.25 1.25 0 0 0 .184-.286.575.575 0 0 0 .03-.225.463.463 0 0 0-.127-.322.398.398 0 0 0-.286-.124Z"/>
</svg>
